icons/circle/48/rsibreak.svg

<?xml version="1.0" encoding="UTF-8"?>
<svg version="1.1" viewBox="0 0 48 48" xmlns="http://www.w3.org/2000/svg">
 <defs>
  <linearGradient id="linearGradient3764" x1="1" x2="47" gradientTransform="rotate(-90 24 24)" gradientUnits="userSpaceOnUse">
   <stop style="stop-color:#575757" offset="0"/>
   <stop style="stop-color:#616161" offset="1"/>
  </linearGradient>
 </defs>
 <path d="m36.3 5c5.86 4.06 9.69 10.8 9.69 18.5 0 12.4-10.1 22.5-22.5 22.5-7.67 0-14.4-3.83-18.5-9.69 1.04 1.82 2.31 3.5 3.78 4.97 4.08 3.71 9.51 5.97 15.5 5.97 12.7 0 23-10.3 23-23 0-5.95-2.26-11.4-5.97-15.5-1.47-1.48-3.15-2.74-4.97-3.78zm4.97 3.78c3.85 4.11 6.22 9.64 6.22 15.7 0 12.7-10.3 23-23 23-6.08 0-11.6-2.36-15.7-6.22 4.16 4.14 9.88 6.72 16.2 6.72 12.7 0 23-10.3 23-23 0-6.34-2.58-12.1-6.72-16.2z" style="opacity:.05"/>
 <path d="m41.3 8.78c3.71 4.08 5.97 9.51 5.97 15.5 0 12.7-10.3 23-23 23-5.95 0-11.4-2.26-15.5-5.97 4.11 3.85 9.64 6.22 15.7 6.22 12.7 0 23-10.3 23-23 0-6.08-2.36-11.6-6.22-15.7z" style="opacity:.1"/>
 <path d="m31.2 2.38c8.62 3.15 14.8 11.4 14.8 21.1 0 12.4-10.1 22.5-22.5 22.5-9.71 0-18-6.14-21.1-14.8a23 23 0 0 0 44.9-7 23 23 0 0 0-16-21.9z" style="opacity:.2"/>
 <path d="m24 1c12.7 0 23 10.3 23 23s-10.3 23-23 23-23-10.3-23-23 10.3-23 23-23z" style="fill:url(#linearGradient3764)"/>
 <path d="m40 7.53c3.71 4.08 5.97 9.51 5.97 15.5 0 12.7-10.3 23-23 23-5.95 0-11.4-2.26-15.5-5.97 4.18 4.29 10 6.97 16.5 6.97 12.7 0 23-10.3 23-23 0-6.46-2.68-12.3-6.97-16.5z" style="opacity:.1"/>
 <path d="m25 10c-8.28 0-15 6.72-15 15s6.72 15 15 15 15-6.72 15-15-6.72-15-15-15m-0.5 1h1.5l-2 1.5v-1c0-0.277 0.22-0.5 0.5-0.5m-5.88 1.56c0.193-0.024 0.39 0.066 0.494 0.246l-1.23 1.86-0.5-0.865c-0.139-0.24-0.058-0.545 0.182-0.684l0.867-0.5c0.06-0.035 0.123-0.054 0.188-0.063zm12.8 0c0.064 8e-3 0.128 0.028 0.188 0.063l0.867 0.5-1.87 1.23c-0.24-0.139-0.32-0.444-0.182-0.684l0.5-0.865c0.104-0.18 0.301-0.27 0.494-0.246zm-17.8 4.76c0.064 8e-3 0.128 0.03 0.188 0.064l0.865 0.5-1.86 1.23c-0.24-0.139-0.322-0.443-0.184-0.682l0.5-0.867c0.104-0.18 0.303-0.27 0.496-0.246zm22.8 0c0.193-0.024 0.392 0.066 0.496 0.246l-1.23 1.87-0.5-0.867c-0.139-0.24-0.056-0.543 0.184-0.682l0.865-0.5c0.06-0.035 0.123-0.056 0.188-0.064zm1.12 5.68h1.5l-2 2v-1.5c0-0.28 0.22-0.5 0.5-0.5m-26 1h1.5l-2 2v-1.5c0-0.28 0.223-0.5 0.5-0.5m25.1 5.46c0.064 8e-3 0.129 0.028 0.189 0.063l0.865 0.5c0.24 0.139 0.322 0.444 0.184 0.684l-0.5 0.865c-0.138 0.239-0.447 0.322-0.687 0.183l-0.865-0.5c-0.24-0.139-0.322-0.444-0.184-0.684l0.5-0.865c0.104-0.18 0.301-0.27 0.494-0.246zm-22.8 0.865c0.193-0.024 0.39 0.066 0.494 0.246l-1.23 1.87-0.5-0.867c-0.139-0.24-0.056-0.543 0.184-0.682l0.865-0.5c0.06-0.035 0.125-0.056 0.189-0.064zm18.6 4.26c0.193-0.024 0.39 0.068 0.494 0.248l0.5 0.865c0.139 0.24 0.056 0.545-0.184 0.684l-0.865 0.5c-0.247 0.135-0.548 0.056-0.687-0.184l-0.5-0.865c-0.139-0.24-0.056-0.545 0.184-0.684l0.865-0.5c0.06-0.035 0.125-0.056 0.189-0.064zm-14.1 0.5c0.064 8e-3 0.128 0.03 0.188 0.064l0.867 0.5-1.87 1.23c-0.24-0.139-0.32-0.444-0.182-0.684l0.5-0.865c0.104-0.18 0.301-0.272 0.494-0.248zm6.12 1.92h1.5l-2 2v-1.5c0-0.28 0.22-0.5 0.5-0.5" style="opacity:.1"/>
 <path d="m24 9a15 15 0 0 0-15 15 15 15 0 0 0 15 15 15 15 0 0 0 15-15 15 15 0 0 0-15-15zm-0.5 1h1c0.277 0 0.5 0.223 0.5 0.5v1c0 0.277-0.223 0.5-0.5 0.5h-1c-0.28 0-0.5-0.223-0.5-0.5v-1c0-0.277 0.22-0.5 0.5-0.5zm-5.88 1.56c0.193-0.025 0.389 0.066 0.499 0.246l0.495 0.865c0.139 0.24 0.058 0.545-0.181 0.683l-0.868 0.5c-0.239 0.139-0.546 0.057-0.681-0.183l-0.5-0.865c-0.139-0.24-0.058-0.545 0.181-0.679l0.868-0.505c0.06-0.035 0.123-0.054 0.187-0.062zm12.8 0c0.064 8e-3 0.127 0.027 0.187 0.062l0.868 0.505c0.239 0.134 0.32 0.439 0.181 0.679l-0.495 0.865c-0.143 0.24-0.447 0.322-0.686 0.183l-0.868-0.5c-0.239-0.138-0.316-0.443-0.181-0.683l0.5-0.865c0.104-0.18 0.305-0.271 0.494-0.246zm-17.8 4.76c0.065 8e-3 0.128 0.03 0.188 0.065l0.865 0.5c0.24 0.135 0.322 0.442 0.183 0.681l-0.5 0.868c-0.138 0.239-0.443 0.32-0.683 0.181l-0.865-0.495c-0.24-0.143-0.322-0.447-0.184-0.686l0.505-0.868c0.099-0.18 0.298-0.27 0.491-0.246zm22.8 0c0.192-0.024 0.391 0.066 0.495 0.246l0.505 0.868c0.134 0.239 0.051 0.543-0.19 0.686l-0.86 0.495c-0.24 0.139-0.549 0.058-0.687-0.181l-0.503-0.868c-0.14-0.239-0.05-0.546 0.19-0.681l0.86-0.5c0.06-0.035 0.12-0.057 0.19-0.065zm1.12 5.68h1c0.277 0 0.5 0.22 0.5 0.5v1c0 0.277-0.223 0.5-0.5 0.5h-1c-0.28 0-0.5-0.223-0.5-0.5v-1c0-0.28 0.22-0.5 0.5-0.5zm-26 1h1c0.277 0 0.5 0.22 0.5 0.5v1c0 0.277-0.223 0.5-0.5 0.5h-1c-0.277 0-0.5-0.223-0.5-0.5v-1c0-0.28 0.223-0.5 0.5-0.5zm25.1 5.46c0.064 8e-3 0.129 0.028 0.189 0.063l0.865 0.502c0.24 0.14 0.319 0.441 0.184 0.681l-0.495 0.865c-0.14 0.24-0.449 0.323-0.689 0.184l-0.865-0.5c-0.24-0.14-0.322-0.444-0.183-0.684l0.497-0.865c0.11-0.18 0.303-0.27 0.497-0.246zm-22.8 0.865c0.197-0.02 0.391 0.066 0.494 0.246l0.5 0.868c0.139 0.239 0.057 0.543-0.183 0.686l-0.865 0.495c-0.24 0.139-0.545 0.058-0.679-0.181l-0.505-0.868c-0.138-0.236-0.056-0.546 0.184-0.681l0.865-0.5c0.06-0.035 0.125-0.057 0.189-0.065zm18.6 4.26c0.194-0.024 0.391 0.068 0.494 0.248l0.5 0.865c0.139 0.24 0.057 0.549-0.182 0.689l-0.866 0.495c-0.244 0.135-0.545 0.056-0.684-0.184l-0.5-0.865c-0.14-0.24-0.06-0.546 0.184-0.686l0.866-0.497c0.059-0.035 0.124-0.057 0.188-0.065zm-14.1 0.502c0.064 0.01 0.127 0.03 0.187 0.06l0.868 0.503c0.239 0.138 0.32 0.447 0.181 0.687l-0.495 0.86c-0.143 0.241-0.447 0.324-0.686 0.19l-0.868-0.505c-0.239-0.138-0.32-0.444-0.181-0.685l0.5-0.86c0.104-0.18 0.305-0.28 0.494-0.25zm6.12 1.92h1c0.277 0 0.5 0.22 0.5 0.5v1c0 0.277-0.223 0.5-0.5 0.5h-1c-0.28 0-0.5-0.223-0.5-0.5v-1c0-0.28 0.22-0.5 0.5-0.5z" style="fill:#d4d4d4"/>
 <path d="m24 13a11 11 0 0 1 10.2 6.79 11 11 0 0 1-2.38 12 11 11 0 0 1-12 2.38 11 11 0 0 1-6.79-10.2h11" style="fill:#2a65a2"/>
</svg>

<svg xmlns="http://www.w3.org/2000/svg" viewBox="0 0 48 48">
 <defs>
  <linearGradient id="linearGradient3764" x1="1" x2="47" gradientUnits="userSpaceOnUse" gradientTransform="matrix(0,-1,1,0,-1.5e-6,47.999998)">
   <stop style="stop-color:#575757"/>
   <stop offset="1" style="stop-color:#616161"/>
  </linearGradient>
 </defs>
 <g>
  <path d="m 36.31 5 c 5.859 4.062 9.688 10.831 9.688 18.5 c 0 12.426 -10.07 22.5 -22.5 22.5 c -7.669 0 -14.438 -3.828 -18.5 -9.688 c 1.037 1.822 2.306 3.499 3.781 4.969 c 4.085 3.712 9.514 5.969 15.469 5.969 c 12.703 0 23 -10.298 23 -23 c 0 -5.954 -2.256 -11.384 -5.969 -15.469 c -1.469 -1.475 -3.147 -2.744 -4.969 -3.781 z m 4.969 3.781 c 3.854 4.113 6.219 9.637 6.219 15.719 c 0 12.703 -10.297 23 -23 23 c -6.081 0 -11.606 -2.364 -15.719 -6.219 c 4.16 4.144 9.883 6.719 16.219 6.719 c 12.703 0 23 -10.298 23 -23 c 0 -6.335 -2.575 -12.06 -6.719 -16.219 z" style="opacity:0.05"/>
  <path d="m 41.28 8.781 c 3.712 4.085 5.969 9.514 5.969 15.469 c 0 12.703 -10.297 23 -23 23 c -5.954 0 -11.384 -2.256 -15.469 -5.969 c 4.113 3.854 9.637 6.219 15.719 6.219 c 12.703 0 23 -10.298 23 -23 c 0 -6.081 -2.364 -11.606 -6.219 -15.719 z" style="opacity:0.1"/>
  <path d="m 31.25 2.375 c 8.615 3.154 14.75 11.417 14.75 21.13 c 0 12.426 -10.07 22.5 -22.5 22.5 c -9.708 0 -17.971 -6.135 -21.12 -14.75 a 23 23 0 0 0 44.875 -7 a 23 23 0 0 0 -16 -21.875 z" style="opacity:0.2"/>
 </g>
 <g>
  <path d="m 24 1 c 12.703 0 23 10.297 23 23 c 0 12.703 -10.297 23 -23 23 -12.703 0 -23 -10.297 -23 -23 0 -12.703 10.297 -23 23 -23 z" style="fill:url(#linearGradient3764)"/>
 </g>
 <g>
  <path d="m 40.03 7.531 c 3.712 4.084 5.969 9.514 5.969 15.469 0 12.703 -10.297 23 -23 23 c -5.954 0 -11.384 -2.256 -15.469 -5.969 4.178 4.291 10.01 6.969 16.469 6.969 c 12.703 0 23 -10.298 23 -23 0 -6.462 -2.677 -12.291 -6.969 -16.469 z" style="opacity:0.1"/>
 </g>
 <path d="M 25 10 A 15 15 0 0 0 10 25 15 15 0 0 0 25 40 15 15 0 0 0 40 25 15 15 0 0 0 25 10 m -0.5 1 1 0 c 0.277 0 0.5 0.223 0.5 0.5 l 0 1 c 0 0.277 -0.223 0.5 -0.5 0.5 l -1 0 C 24.22 13 24 12.777 24 12.5 l 0 -1 C 24 11.223 24.22 11 24.5 11 m -5.879 1.563 c 0.193 -0.024 0.39 0.066 0.494 0.246 l 0.5 0.865 c 0.139 0.24 0.058 0.545 -0.182 0.684 l -0.867 0.5 c -0.24 0.139 -0.543 0.056 -0.682 -0.184 l -0.5 -0.865 c -0.139 -0.24 -0.058 -0.545 0.182 -0.684 l 0.867 -0.5 c 0.06 -0.035 0.123 -0.054 0.188 -0.063 z m 12.758 0 c 0.064 0.008 0.128 0.028 0.188 0.063 l 0.867 0.5 c 0.24 0.139 0.32 0.444 0.182 0.684 l -0.5 0.865 c -0.139 0.24 -0.442 0.322 -0.682 0.184 l -0.867 -0.5 c -0.24 -0.139 -0.32 -0.444 -0.182 -0.684 l 0.5 -0.865 c 0.104 -0.18 0.301 -0.27 0.494 -0.246 z m -17.758 4.758 c 0.064 0.008 0.128 0.03 0.188 0.064 l 0.865 0.5 c 0.24 0.139 0.322 0.442 0.184 0.682 l -0.5 0.867 c -0.139 0.24 -0.444 0.32 -0.684 0.182 l -0.865 -0.5 C 12.569 18.977 12.487 18.673 12.625 18.434 l 0.5 -0.867 c 0.104 -0.18 0.303 -0.27 0.496 -0.246 z m 22.758 0 c 0.193 -0.024 0.392 0.066 0.496 0.246 l 0.5 0.867 c 0.139 0.24 0.056 0.543 -0.184 0.682 l -0.865 0.5 c -0.24 0.139 -0.545 0.058 -0.684 -0.182 l -0.5 -0.867 c -0.139 -0.24 -0.056 -0.543 0.184 -0.682 l 0.865 -0.5 c 0.06 -0.035 0.123 -0.056 0.188 -0.064 z M 37.5 23 l 1 0 c 0.277 0 0.5 0.223 0.5 0.5 l 0 1 c 0 0.277 -0.223 0.5 -0.5 0.5 l -1 0 C 37.22 25 37 24.777 37 24.5 l 0 -1 C 37 23.22 37.22 23 37.5 23 m -26 1 1 0 c 0.277 0 0.5 0.223 0.5 0.5 l 0 1 c 0 0.277 -0.223 0.5 -0.5 0.5 l -1 0 C 11.223 26 11 25.777 11 25.5 l 0 -1 C 11 24.22 11.223 24 11.5 24 m 25.14 5.455 c 0.064 0.008 0.129 0.028 0.189 0.063 l 0.865 0.5 c 0.24 0.139 0.322 0.444 0.184 0.684 l -0.5 0.865 C 37.24 31.806 36.931 31.889 36.691 31.75 l -0.865 -0.5 c -0.24 -0.139 -0.322 -0.444 -0.184 -0.684 l 0.5 -0.865 c 0.104 -0.18 0.301 -0.27 0.494 -0.246 z m -22.773 0.865 c 0.193 -0.024 0.39 0.066 0.494 0.246 l 0.5 0.867 c 0.139 0.24 0.056 0.543 -0.184 0.682 l -0.865 0.5 c -0.24 0.139 -0.545 0.058 -0.684 -0.182 l -0.5 -0.867 c -0.139 -0.24 -0.056 -0.543 0.184 -0.682 l 0.865 -0.5 c 0.06 -0.035 0.125 -0.056 0.189 -0.064 z m 18.625 4.258 c 0.193 -0.024 0.39 0.068 0.494 0.248 l 0.5 0.865 c 0.139 0.24 0.056 0.545 -0.184 0.684 l -0.865 0.5 C 32.19 37.01 31.889 36.931 31.75 36.691 l -0.5 -0.865 c -0.139 -0.24 -0.056 -0.545 0.184 -0.684 l 0.865 -0.5 c 0.06 -0.035 0.125 -0.056 0.189 -0.064 z m -14.11 0.5 c 0.064 0.008 0.128 0.03 0.188 0.064 l 0.867 0.5 c 0.24 0.139 0.32 0.444 0.182 0.684 l -0.5 0.865 c -0.139 0.24 -0.442 0.322 -0.682 0.184 l -0.867 -0.5 c -0.24 -0.139 -0.32 -0.444 -0.182 -0.684 l 0.5 -0.865 c 0.104 -0.18 0.301 -0.272 0.494 -0.248 z M 24.5 37 l 1 0 c 0.277 0 0.5 0.223 0.5 0.5 l 0 1 c 0 0.277 -0.223 0.5 -0.5 0.5 l -1 0 C 24.22 39 24 38.777 24 38.5 l 0 -1 C 24 37.22 24.22 37 24.5 37" style="opacity:0.1"/>
 <path d="M 24 9 A 15 15 0 0 0 9 24 A 15 15 0 0 0 24 39 A 15 15 0 0 0 39 24 A 15 15 0 0 0 24 9 z M 23.5 10 L 24.5 10 C 24.777 10 25 10.223 25 10.5 L 25 11.5 C 25 11.777 24.777 12 24.5 12 L 23.5 12 C 23.22 12 23 11.777 23 11.5 L 23 10.5 C 23 10.223 23.22 10 23.5 10 z M 17.621 11.563 C 17.814 11.538 18.01 11.629 18.12 11.809 L 18.615 12.674 C 18.754 12.914 18.673 13.219 18.434 13.357 L 17.566 13.857 C 17.327 13.996 17.02 13.914 16.885 13.674 L 16.385 12.809 C 16.246 12.569 16.327 12.264 16.566 12.13 L 17.434 11.625 C 17.494 11.59 17.557 11.571 17.621 11.563 z M 30.379 11.563 C 30.443 11.571 30.506 11.59 30.566 11.625 L 31.434 12.13 C 31.673 12.264 31.754 12.569 31.615 12.809 L 31.12 13.674 C 30.977 13.914 30.673 13.996 30.434 13.857 L 29.566 13.357 C 29.327 13.219 29.25 12.914 29.385 12.674 L 29.885 11.809 C 29.989 11.629 30.19 11.538 30.379 11.563 z M 12.621 16.32 C 12.686 16.328 12.749 16.35 12.809 16.385 L 13.674 16.885 C 13.914 17.02 13.996 17.327 13.857 17.566 L 13.357 18.434 C 13.219 18.673 12.914 18.754 12.674 18.615 L 11.809 18.12 C 11.569 17.977 11.487 17.673 11.625 17.434 L 12.13 16.566 C 12.229 16.386 12.428 16.296 12.621 16.32 z M 35.38 16.32 C 35.572 16.296 35.771 16.386 35.875 16.566 L 36.38 17.434 C 36.514 17.673 36.431 17.977 36.19 18.12 L 35.33 18.615 C 35.09 18.754 34.781 18.673 34.643 18.434 L 34.14 17.566 C 34 17.327 34.09 17.02 34.33 16.885 L 35.19 16.385 C 35.25 16.35 35.31 16.328 35.38 16.32 z M 36.5 22 L 37.5 22 C 37.777 22 38 22.22 38 22.5 L 38 23.5 C 38 23.777 37.777 24 37.5 24 L 36.5 24 C 36.22 24 36 23.777 36 23.5 L 36 22.5 C 36 22.22 36.22 22 36.5 22 z M 10.5 23 L 11.5 23 C 11.777 23 12 23.22 12 23.5 L 12 24.5 C 12 24.777 11.777 25 11.5 25 L 10.5 25 C 10.223 25 10 24.777 10 24.5 L 10 23.5 C 10 23.22 10.223 23 10.5 23 z M 35.637 28.455 C 35.701 28.463 35.766 28.483 35.826 28.518 L 36.691 29.02 C 36.931 29.16 37.01 29.461 36.875 29.701 L 36.38 30.566 C 36.24 30.806 35.931 30.889 35.691 30.75 L 34.826 30.25 C 34.586 30.11 34.504 29.806 34.643 29.566 L 35.14 28.701 C 35.25 28.521 35.443 28.431 35.637 28.455 z M 12.863 29.32 C 13.06 29.3 13.254 29.386 13.357 29.566 L 13.857 30.434 C 13.996 30.673 13.914 30.977 13.674 31.12 L 12.809 31.615 C 12.569 31.754 12.264 31.673 12.13 31.434 L 11.625 30.566 C 11.487 30.33 11.569 30.02 11.809 29.885 L 12.674 29.385 C 12.734 29.35 12.799 29.328 12.863 29.32 z M 31.488 33.578 C 31.682 33.554 31.879 33.646 31.982 33.826 L 32.482 34.691 C 32.621 34.931 32.539 35.24 32.3 35.38 L 31.434 35.875 C 31.19 36.01 30.889 35.931 30.75 35.691 L 30.25 34.826 C 30.11 34.586 30.19 34.28 30.434 34.14 L 31.3 33.643 C 31.359 33.608 31.424 33.586 31.488 33.578 z M 17.379 34.08 C 17.443 34.09 17.506 34.11 17.566 34.14 L 18.434 34.643 C 18.673 34.781 18.754 35.09 18.615 35.33 L 18.12 36.19 C 17.977 36.431 17.673 36.514 17.434 36.38 L 16.566 35.875 C 16.327 35.737 16.246 35.431 16.385 35.19 L 16.885 34.33 C 16.989 34.15 17.19 34.05 17.379 34.08 z M 23.5 36 L 24.5 36 C 24.777 36 25 36.22 25 36.5 L 25 37.5 C 25 37.777 24.777 38 24.5 38 L 23.5 38 C 23.22 38 23 37.777 23 37.5 L 23 36.5 C 23 36.22 23.22 36 23.5 36 z" style="fill:#d4d4d4"/>
 <path d="m 24 13 a 11 11 0 0 1 10.163 6.79 11 11 0 0 1 -2.385 11.988 11 11 0 0 1 -11.988 2.384 A 11 11 0 0 1 13 24 L 24 24" style="fill:#29639f"/>
</svg>
